X:1
T:Title
%%score { ( 1 3 ) | ( 2 4 ) }
L:1/8
M:4/4
K:Db
V:1 treble nm="Grand Piano"
V:3 treble 
V:2 bass 
V:4 bass 
V:1
 z4 z2[Q:1/4=100] F>G | [FA]3 [FA] =GABA | [FA]2 [Af]2 [Bd]2 [GB]2 | [FA]3 [FA] =GABA | %4
 E6[K:bass][K:treble] z2 | [DF]4 z4 | [CA]2 [Ec]2 [DB]2 [Fd]2 | cA=GF [E,DE]2 B2 | %8
[M:3/4] [A,CA]4 B2 |[M:1/4] [Gc]2 |[M:4/4] d3 A [FA]2 [FA]B | A3 =G _G2 G2 | e3 [Fd] [Ac]2 [GB]2 | %13
 [A,FA]2 [A,EG]2 [A,DF]3 [DFA] | [Fd]3 [Ec] [Ge][Fd][Ac][CGB] | %15
 [FA]2 [DF]2 [Fd]D[Q:1/4=94]D[Q:1/4=88]D[Q:1/4=99][Q:1/4=97][Q:1/4=96][Q:1/4=93][Q:1/4=91][Q:1/4=90][Q:1/4=87][Q:1/4=85][Q:1/4=84] | %16
[Q:1/4=82] [FA]3 [FA]/[EG]/ [DF]2 z[K:bass] G,[Q:1/4=81][Q:1/4=79][Q:1/4=78][Q:1/4=76] | %17
[M:3/4] D6 |] %18
V:2
 z4 z2 D>E | D,F,A,[K:treble]D _F=FGF | D,F,A,D G,,D,G,B, | D,F,A,[K:treble]D _F=FGF | C6 E2 | %5
 D,F,F,F, B,,E,E,E, | C,E,A,E, D,F,B,B,, | ECED E,,2 D2 |[M:3/4] A,,3[K:treble] A =G2 | %9
[M:1/4][K:bass] [A,,A,]2 |[M:4/4] [D,A,]4 [D,D]2 z[K:treble] G | F3 _F [A,CE]2 [A,CE]2 | %12
 [A,,CG]3 [A,,A,] [A,,A,]2 [A,,A,]2 | A,,B,, C,2 D,3 D, | [D,A,]3 [D,A,] [D,A,]2 .[D,B,]2 | %15
 [D,D]2 [D,A,]2 [B,,B,][B,,F,][B,,F,][=A,,=G,] | [A,,A,]3 [A,,A,] [A,,A,]2 .[A,,A,]2 | %17
[M:3/4] [D,F,A,]6 |] %18
V:3
 x8 | x8 | x8 | x8 | z[K:bass] A,,C,E, A,2[K:treble] G2 | %5
 z A,A,[A,DF] [D=G][=G,B,DG][G,B,DF][G,B,DE] | x8 | x8 |[M:3/4] x6 |[M:1/4] x2 |[M:4/4] F4 z4 | %11
 x8 | x8 | x8 | x8 | x8 | z4 z2 [CE]2[K:bass] |[M:3/4] x6 |] %18
V:4
 x8 | x3[K:treble] x5 | x8 | x3[K:treble] x5 | x8 | x8 | x8 | [E,A,]2 z2 z4 | %8
[M:3/4] x3[K:treble] x3 |[M:1/4][K:bass] x2 |[M:4/4] z4 z2 [D,D]2[K:treble] | [A,D]4 z4 | x8 | x8 | %14
 x8 | x8 | x8 |[M:3/4] x6 |] %18

